X: 1
T: Irish Volunteer, The
M: 2/4
L: 1/8
R: polka
K: Gmaj
|: GB d e/f/ | gd BG | e>c AF | GF ED|
GB d e/f/ | gf eg | fe d^c | d2 d2 :|
|: a>f ed | gd BG | e>c AF | GF ED |
GB d e/f/ | gf eg | fe d^c | d2 d2  :|
